X:1
T:"Lonach" Country Dance, The
T:"Lonach" Country Dance, The
T:Alexander Walker
C:Alexander Walker
L:1/8
M:6/8
K:E
V:1 treble 
V:1
 B | e2 e/>a/g/>f/ | e>BB c | B<GG>B | cFF d | e2 e/>a/g/>f/ | e>BB G | A/G/A/B/ c f | e2 e :: %9
 e/f/ | gea f | ge ba/g/ | fBf B | fBd f |1 geg e | ge ba/g/ | B/B/B/B/ c d | (e2 e) :|2 %18
 eg/g/ g g | fa/a/ a a | gb/b/ b b | !fermata!e3 || %22

